storage/app/icons/phosphoricons/light/corners-out-light.svg

<svg xmlns="http://www.w3.org/2000/svg" fill="currentColor" viewBox="0 0 256 256"><path d="M214 48v40a6 6 0 0 1-12 0V54h-34a6 6 0 0 1 0-12h40a6 6 0 0 1 6 6M88 202H54v-34a6 6 0 0 0-12 0v40a6 6 0 0 0 6 6h40a6 6 0 0 0 0-12m120-40a6 6 0 0 0-6 6v34h-34a6 6 0 0 0 0 12h40a6 6 0 0 0 6-6v-40a6 6 0 0 0-6-6M88 42H48a6 6 0 0 0-6 6v40a6 6 0 0 0 12 0V54h34a6 6 0 0 0 0-12"/></svg>

<svg xmlns="http://www.w3.org/2000/svg" viewBox="0 0 256 256" fill="currentColor"><path d="M214,48V88a6,6,0,0,1-12,0V54H168a6,6,0,0,1,0-12h40A6,6,0,0,1,214,48ZM88,202H54V168a6,6,0,0,0-12,0v40a6,6,0,0,0,6,6H88a6,6,0,0,0,0-12Zm120-40a6,6,0,0,0-6,6v34H168a6,6,0,0,0,0,12h40a6,6,0,0,0,6-6V168A6,6,0,0,0,208,162ZM88,42H48a6,6,0,0,0-6,6V88a6,6,0,0,0,12,0V54H88a6,6,0,0,0,0-12Z"/></svg>
